markupers/assets/images/logo.svg

<svg width="181" height="22" viewBox="0 0 181 22" fill="none" xmlns="http://www.w3.org/2000/svg">
<g clip-path="url('#clip0_3201_3571')">
<path d="M2.18555 19.1729L0.00148268 16.95L14.8243 1.86335C15.2488 1.4313 15.7527 1.08859 16.3074 0.854768C16.862 0.620948 17.4564 0.500603 18.0567 0.500603C18.657 0.500603 19.2515 0.620947 19.8061 0.854768C20.3607 1.08859 20.8647 1.4313 21.2891 1.86335L23.4732 4.08629L8.65039 19.1729C7.7931 20.0455 6.63036 20.5357 5.41797 20.5357C4.20558 20.5357 3.04284 20.0455 2.18555 19.1729Z" fill="#F15A25"></path>
<path d="M19.0293 19.1729L16.8452 16.95L31.6681 1.86335C32.0925 1.4313 32.5965 1.08859 33.1511 0.854769C33.7057 0.620948 34.3002 0.500603 34.9005 0.500603C35.5008 0.500603 36.0952 0.620947 36.6499 0.854768C37.2045 1.08859 37.7084 1.4313 38.1329 1.86335L40.317 4.08629L25.4941 19.1729C24.6368 20.0455 23.4741 20.5357 22.2617 20.5357C21.0493 20.5357 19.8866 20.0455 19.0293 19.1729Z" fill="#F15A25"></path>
<path d="M35.5781 16.9888C35.5781 19.5008 37.5788 21.5371 40.0468 21.5371C42.5149 21.5371 44.5156 19.5008 44.5156 16.9888C44.5156 14.4768 42.5149 12.4405 40.0468 12.4405C37.5788 12.4405 35.5781 14.4768 35.5781 16.9888Z" fill="#F15A25"></path>
<path d="M111.901 17.9979H107.784L102.799 11.6702V11.6614V17.9979H99.2578V4.09892C99.2578 3.14465 99.6302 2.22944 100.293 1.55454C100.956 0.879652 101.855 0.500333 102.793 0.5V0.5V10.1826L107.513 4.04611H111.735L106.225 10.9371L111.901 17.9979Z" fill="#001322"></path>
<path d="M180.101 11.5189C179.671 10.9411 179.091 10.4976 178.426 10.2388C177.78 9.98876 177.12 9.77879 176.449 9.61006C175.873 9.47211 175.312 9.27711 174.774 9.02784C174.315 8.8103 174.088 8.52485 174.088 8.17024C174.085 8.01125 174.122 7.85412 174.197 7.71463C174.272 7.57513 174.382 7.45818 174.516 7.37551C174.839 7.17217 175.214 7.07148 175.594 7.08629C176.564 7.08209 177.254 7.52724 177.666 8.42174L180.526 6.83479C180.046 5.96175 179.335 5.24302 178.474 4.75994C177.59 4.27215 176.598 4.02279 175.593 4.03563C174.187 4.03563 173.017 4.41287 172.074 5.15982C171.132 5.90677 170.656 6.93287 170.656 8.2394C170.656 9.10078 170.887 9.82132 171.345 10.3897C171.787 10.9501 172.365 11.3835 173.022 11.6472C173.668 11.9064 174.328 12.1272 174.999 12.3086C175.572 12.4544 176.132 12.6522 176.67 12.8996C177.134 13.1222 177.36 13.4114 177.36 13.7623C177.36 14.5168 176.762 14.894 175.571 14.894C174.253 14.894 173.404 14.321 173.026 13.175L170.117 14.8412C171.087 16.937 172.904 17.9849 175.571 17.9849C177.053 17.9849 178.299 17.6152 179.294 16.8871C180.29 16.159 180.787 15.1103 180.787 13.7547C180.787 12.8653 180.558 12.12 180.101 11.5189Z" fill="#001322"></path>
<path d="M96.9634 4.048V7.64189C96.159 7.69476 95.4006 8.04228 94.8285 8.6202C94.2564 9.19811 93.9092 9.96733 93.8512 10.7856C93.8512 10.8611 93.8425 10.9365 93.8425 11.017C93.8411 11.0938 93.844 11.1706 93.8512 11.2471V17.9923H90.3164V4.04297H93.8524V4.90938C94.807 4.37364 95.8737 4.07828 96.9634 4.048Z" fill="#001322"></path>
<path d="M159.828 9.87144C159.572 8.31132 158.803 6.88589 157.647 5.82875C156.491 4.77162 155.016 4.14549 153.465 4.05297C151.914 3.96045 150.377 4.40703 149.108 5.31953C147.839 6.23203 146.912 7.55631 146.479 9.07536C146.046 10.5944 146.132 12.2181 146.725 13.6804C147.317 15.1427 148.38 16.3568 149.739 17.1237C151.098 17.8907 152.673 18.165 154.205 17.9018C155.738 17.6385 157.137 16.8533 158.173 15.6747L155.55 13.2704C155.168 13.71 154.679 14.0406 154.133 14.2293C153.587 14.4181 153.002 14.4586 152.435 14.3469C151.869 14.2352 151.341 13.975 150.904 13.5922C150.466 13.2094 150.134 12.717 149.941 12.1638H159.825C159.865 11.9288 159.891 11.6915 159.904 11.4534C159.913 11.315 159.916 11.1641 159.916 11.0183C159.918 10.6342 159.888 10.2506 159.828 9.87144ZM149.944 9.87144C150.174 9.21555 150.598 8.6482 151.158 8.24707C151.717 7.84594 152.385 7.63064 153.069 7.63064C153.754 7.63064 154.421 7.84594 154.981 8.24707C155.541 8.6482 155.965 9.21555 156.195 9.87144H149.944Z" fill="#001322"></path>
<path d="M137.058 3.94399C135.898 3.94153 134.757 4.24155 133.744 4.81543V4.04207H130.203V21.54H133.744V17.0256C134.757 17.5991 135.898 17.8987 137.058 17.8958C137.965 17.9082 138.867 17.7369 139.709 17.3919C140.551 17.0469 141.318 16.535 141.964 15.886C142.61 15.237 143.123 14.4638 143.474 13.6113C143.824 12.7588 144.004 11.8439 144.004 10.9199C144.004 9.99583 143.824 9.08099 143.474 8.22847C143.123 7.37594 142.61 6.60274 141.964 5.95373C141.318 5.30473 140.551 4.79287 139.709 4.44786C138.867 4.10285 137.965 3.93158 137.058 3.94399ZM137.058 14.3057C136.225 14.305 135.423 13.9867 134.809 13.4136C134.196 12.8405 133.816 12.0541 133.744 11.2097C133.735 11.1154 133.73 11.0186 133.73 10.9205C133.73 10.8224 133.73 10.7243 133.744 10.6313C133.799 9.97573 134.04 9.35057 134.438 8.83215C134.836 8.31373 135.374 7.92449 135.985 7.71196C136.597 7.49943 137.256 7.4728 137.883 7.63534C138.509 7.79788 139.076 8.14255 139.513 8.62725C139.95 9.11195 140.239 9.71571 140.344 10.3648C140.45 11.0139 140.367 11.6802 140.107 12.2824C139.847 12.8846 139.42 13.3966 138.878 13.7559C138.337 14.1152 137.704 14.3062 137.058 14.3057Z" fill="#001322"></path>
<path d="M84.4648 4.04297V4.91441C83.4211 4.32876 82.2455 4.03019 81.0539 4.04813C79.8623 4.06608 78.6958 4.39993 77.6697 5.01675C76.6435 5.63357 75.7931 6.51204 75.2023 7.56548C74.6115 8.61892 74.3008 9.81093 74.3008 11.0239C74.3008 12.2369 74.6115 13.4289 75.2023 14.4823C75.7931 15.5358 76.6435 16.4142 77.6697 17.031C78.6958 17.6479 79.8623 17.9817 81.0539 17.9997C82.2455 18.0176 83.4211 17.719 84.4648 17.1334V17.9948H88.0008V4.04297H84.4648ZM81.1475 14.4097C80.499 14.4101 79.8646 14.2176 79.3222 13.856C78.7797 13.4943 78.3529 12.9792 78.0943 12.374C77.8357 11.7687 77.7564 11.0998 77.8663 10.4493C77.9762 9.79886 78.2705 9.19527 78.7129 8.71275C79.1554 8.23024 79.7267 7.88983 80.3567 7.73338C80.9867 7.57693 81.6478 7.61126 82.2589 7.83214C82.87 8.05302 83.4043 8.45084 83.7962 8.97667C84.1881 9.5025 84.4205 10.1334 84.4648 10.7919C84.4648 10.8686 84.4734 10.944 84.4734 11.0233C84.4749 11.1005 84.472 11.1777 84.4648 11.2546C84.4072 12.1103 84.0328 12.9119 83.417 13.4975C82.8013 14.0831 81.9902 14.4091 81.1475 14.4097Z" fill="#001322"></path>
<path d="M127.903 4.04297V18.0011H124.367V17.1346C123.323 17.7219 122.146 18.0219 120.953 18.0049C119.761 17.9878 118.593 17.6544 117.565 17.0376C116.538 16.4207 115.686 15.5417 115.094 14.4874C114.503 13.4331 114.191 12.24 114.191 11.0258V4.04297H117.731V10.7881C117.731 10.8636 117.722 10.939 117.722 11.0195C117.722 11.1 117.722 11.1742 117.731 11.2496C117.785 12.1079 118.158 12.913 118.774 13.5014C119.391 14.0898 120.204 14.4173 121.049 14.4173C121.894 14.4173 122.707 14.0898 123.324 13.5014C123.94 12.913 124.313 12.1079 124.367 11.2496C124.374 11.1731 124.377 11.0963 124.376 11.0195C124.376 10.939 124.376 10.8636 124.367 10.7881V4.04297H127.903Z" fill="#001322"></path>
<path d="M117.732 10.7871V11.2486C117.732 11.1732 117.723 11.0977 117.723 11.0185C117.723 10.9393 117.728 10.8626 117.732 10.7871Z" fill="#001322"></path>
<path d="M168.866 4.048V7.64189C168.06 7.69212 167.3 8.03875 166.727 8.61716C166.155 9.19558 165.808 9.96629 165.752 10.7856C165.752 10.8611 165.74 10.9365 165.74 11.017C165.738 11.0939 165.742 11.1709 165.752 11.2471V17.9923H162.219V4.04297H165.758V4.90938C166.712 4.3733 167.777 4.0779 168.866 4.048Z" fill="#001322"></path>
<path d="M71.996 9.76963V18.0112H68.4551V9.98214C68.4551 9.9155 68.4674 9.84508 68.4674 9.76963C68.4674 9.69418 68.4588 9.62753 68.4551 9.55585C68.4036 9.02477 68.1566 8.53318 67.7637 8.17986C67.3707 7.82653 66.861 7.63767 66.3368 7.6512C65.8126 7.66474 65.3129 7.87968 64.9381 8.25283C64.5633 8.62598 64.3411 9.12969 64.3162 9.66274C64.3143 9.66688 64.3133 9.67138 64.3133 9.67594C64.3133 9.6805 64.3143 9.68501 64.3162 9.68915C64.3143 9.71594 64.3143 9.74283 64.3162 9.76963C64.3143 9.796 64.3143 9.82247 64.3162 9.84885C64.3162 9.86268 64.3162 9.87148 64.3162 9.87651V18.0112H60.7863V9.98214C60.789 9.93775 60.789 9.89324 60.7863 9.84885C60.7882 9.82247 60.7882 9.796 60.7863 9.76963C60.7882 9.74283 60.7882 9.71594 60.7863 9.68915C60.789 9.64392 60.789 9.59857 60.7863 9.55334C60.7332 9.03237 60.4923 8.54993 60.1101 8.1992C59.7279 7.84848 59.2315 7.65437 58.7169 7.65437C58.2023 7.65437 57.7059 7.84848 57.3237 8.1992C56.9415 8.54993 56.7006 9.03237 56.6474 9.55334C56.6474 9.62502 56.6351 9.69166 56.6351 9.76711C56.6351 9.84256 56.6437 9.91298 56.6474 9.97963V17.9961H53.1016V9.76963C53.1026 8.62691 53.4406 7.51081 54.0716 6.56567C54.7026 5.62053 55.5978 4.88983 56.6413 4.46807C57.9702 3.92991 59.4512 3.92991 60.7802 4.46807C60.9457 4.53472 61.1076 4.61017 61.2645 4.69065C61.577 4.85345 61.8739 5.04541 62.1516 5.26406C62.2862 5.37472 62.4221 5.49041 62.5482 5.60987C62.6717 5.48412 62.8101 5.37472 62.946 5.26406C63.2232 5.04542 63.5198 4.85346 63.8318 4.69065C63.9887 4.61017 64.1506 4.53472 64.3162 4.46807C65.6451 3.92991 67.1261 3.92991 68.4551 4.46807C69.4988 4.88963 70.3942 5.62024 71.0254 6.5654C71.6567 7.51056 71.9948 8.62676 71.996 9.76963Z" fill="#001322"></path>
</g>
<defs>
<clipPath id="clip0_3201_3571">
<rect width="181" height="21" fill="#001322" transform="translate(0 0.5)"></rect>
</clipPath>
</defs>
</svg>

<svg width="181" height="22" fill="none" xmlns="http://www.w3.org/2000/svg">
  <g clip-path="url('#clip0_3201_3571')">
    <path d="M2.186 19.173 0 16.95 14.824 1.863A4.566 4.566 0 0 1 16.307.855a4.502 4.502 0 0 1 3.5 0 4.566 4.566 0 0 1 1.482 1.008l2.184 2.223L8.65 19.173a4.531 4.531 0 0 1-3.232 1.363 4.531 4.531 0 0 1-3.232-1.363Zm16.844 0-2.185-2.223L31.668 1.863A4.566 4.566 0 0 1 33.151.855a4.502 4.502 0 0 1 3.499 0 4.567 4.567 0 0 1 1.483 1.008l2.184 2.223-14.823 15.087a4.531 4.531 0 0 1-3.232 1.363 4.531 4.531 0 0 1-3.233-1.363Zm16.548-2.184c0 2.512 2 4.548 4.469 4.548 2.468 0 4.469-2.036 4.469-4.548s-2.001-4.549-4.47-4.549c-2.467 0-4.468 2.037-4.468 4.549Z" fill="#F15A25"/>
    <path d="M111.901 17.998h-4.117l-4.985-6.328v-.009 6.337h-3.541v-13.9c0-.953.372-1.869 1.035-2.543a3.506 3.506 0 0 1 2.5-1.055v9.683l4.72-6.137h4.222l-5.51 6.891 5.676 7.06Zm68.2-6.479a3.814 3.814 0 0 0-1.675-1.28c-.646-.25-1.306-.46-1.977-.629a8.933 8.933 0 0 1-1.675-.582c-.459-.218-.686-.503-.686-.858a.925.925 0 0 1 .109-.455.897.897 0 0 1 .319-.34 1.884 1.884 0 0 1 1.078-.289c.97-.004 1.66.441 2.072 1.336l2.86-1.587a5.31 5.31 0 0 0-2.052-2.075 5.808 5.808 0 0 0-2.881-.724c-1.406 0-2.576.377-3.519 1.124-.942.747-1.418 1.773-1.418 3.08 0 .86.231 1.581.689 2.15.442.56 1.02.993 1.677 1.257.646.26 1.306.48 1.977.662a9.765 9.765 0 0 1 1.671.59c.464.223.69.512.69.863 0 .755-.598 1.132-1.789 1.132-1.318 0-2.167-.573-2.545-1.719l-2.909 1.666c.97 2.096 2.787 3.144 5.454 3.144 1.482 0 2.728-.37 3.723-1.098.996-.728 1.493-1.777 1.493-3.132 0-.89-.229-1.635-.686-2.236ZM96.963 4.048v3.594a3.31 3.31 0 0 0-2.134.978 3.422 3.422 0 0 0-.978 2.166c0 .075-.008.15-.008.231-.002.077.001.154.008.23v6.745h-3.535V4.043h3.536v.866a6.737 6.737 0 0 1 3.111-.861Zm62.865 5.823a7.016 7.016 0 0 0-2.181-4.042 6.797 6.797 0 0 0-4.182-1.776 6.77 6.77 0 0 0-4.357 1.267 6.978 6.978 0 0 0-2.629 3.755 7.091 7.091 0 0 0 .246 4.605 6.937 6.937 0 0 0 3.014 3.444 6.754 6.754 0 0 0 4.466.778 6.822 6.822 0 0 0 3.968-2.227l-2.623-2.405c-.382.44-.871.77-1.417.96a3.262 3.262 0 0 1-3.229-.638 3.371 3.371 0 0 1-.963-1.428h9.884a6.865 6.865 0 0 0 .091-1.146 7.102 7.102 0 0 0-.088-1.147Zm-9.884 0a3.367 3.367 0 0 1 1.214-1.624 3.278 3.278 0 0 1 3.823 0c.56.401.984.969 1.214 1.624h-6.251Zm-12.886-5.927a6.692 6.692 0 0 0-3.314.871v-.773h-3.541V21.54h3.541v-4.514a6.69 6.69 0 0 0 3.314.87 6.75 6.75 0 0 0 2.651-.504 6.845 6.845 0 0 0 2.255-1.506 7.002 7.002 0 0 0 1.51-2.275 7.088 7.088 0 0 0 0-5.383 7.002 7.002 0 0 0-1.51-2.274 6.845 6.845 0 0 0-2.255-1.506 6.75 6.75 0 0 0-2.651-.504Zm0 10.362a3.299 3.299 0 0 1-2.249-.892 3.414 3.414 0 0 1-1.079-2.493c0-.099 0-.197.014-.29.055-.655.296-1.28.694-1.799a3.333 3.333 0 0 1 1.547-1.12 3.275 3.275 0 0 1 1.898-.077 3.32 3.32 0 0 1 1.63.992 3.442 3.442 0 0 1 .594 3.655 3.367 3.367 0 0 1-1.229 1.474c-.541.36-1.174.55-1.82.55ZM84.465 4.043v.871a6.76 6.76 0 0 0-6.795.103 6.92 6.92 0 0 0-2.468 2.548 7.073 7.073 0 0 0-.901 3.459c0 1.213.31 2.405.901 3.458a6.919 6.919 0 0 0 2.468 2.549 6.764 6.764 0 0 0 3.384.969 6.76 6.76 0 0 0 3.41-.867v.862h3.537V4.043h-3.536ZM81.147 14.41a3.286 3.286 0 0 1-1.825-.554 3.372 3.372 0 0 1-1.228-1.482 3.442 3.442 0 0 1-.228-1.925 3.41 3.41 0 0 1 .847-1.736 3.316 3.316 0 0 1 1.644-.98 3.272 3.272 0 0 1 1.902.1c.611.22 1.145.618 1.537 1.144.392.525.624 1.156.669 1.815 0 .077.008.152.008.231a3.41 3.41 0 0 1-1.056 2.474 3.296 3.296 0 0 1-2.27.913Zm46.756-10.367v13.958h-3.536v-.866a6.765 6.765 0 0 1-3.414.87 6.773 6.773 0 0 1-3.388-.967 6.93 6.93 0 0 1-2.471-2.55 7.083 7.083 0 0 1-.903-3.462V4.043h3.54v6.745c0 .076-.009.151-.009.232 0 .08 0 .154.009.23a3.41 3.41 0 0 0 1.043 2.251c.617.589 1.43.916 2.275.916s1.658-.327 2.275-.916a3.41 3.41 0 0 0 1.043-2.251 2.21 2.21 0 0 0 .009-.23c0-.081 0-.156-.009-.232V4.043h3.536Z" fill="#fff"/>
    <path d="M117.732 10.787v.462c0-.076-.009-.151-.009-.23 0-.08.005-.156.009-.232Zm51.134-6.739v3.594a3.3 3.3 0 0 0-2.139.975 3.416 3.416 0 0 0-.975 2.169c0 .075-.012.15-.012.231-.002.077.002.154.012.23v6.745h-3.533V4.043h3.539v.866a6.717 6.717 0 0 1 3.108-.861ZM71.996 9.77v8.241h-3.54V9.982c0-.066.011-.137.011-.212 0-.076-.008-.142-.012-.214a2.126 2.126 0 0 0-.691-1.376 2.054 2.054 0 0 0-1.427-.529 2.058 2.058 0 0 0-1.399.602 2.13 2.13 0 0 0-.622 1.596v8.162h-3.53V9.982a1.098 1.098 0 0 0 0-.133.551.551 0 0 0 0-.08.569.569 0 0 0 0-.08 1.14 1.14 0 0 0 0-.136A2.13 2.13 0 0 0 60.11 8.2a2.06 2.06 0 0 0-1.393-.545 2.06 2.06 0 0 0-1.393.545 2.13 2.13 0 0 0-.677 1.354c0 .072-.012.139-.012.214 0 .076.009.146.012.213v8.016h-3.545V9.77a5.782 5.782 0 0 1 .97-3.204 5.63 5.63 0 0 1 2.57-2.098 5.507 5.507 0 0 1 4.622.223 5.665 5.665 0 0 1 1.284.919c.124-.126.262-.235.398-.346a5.655 5.655 0 0 1 1.37-.796 5.507 5.507 0 0 1 4.14 0 5.63 5.63 0 0 1 2.57 2.097c.63.946.969 2.062.97 3.205Z" fill="#fff"/>
  </g>
  <defs>
    <clipPath id="clip0_3201_3571">
      <path fill="#fff" transform="translate(0 .5)" d="M0 0h181v21H0z"/>
    </clipPath>
  </defs>
</svg>
